packages/core/src/svgs/tokens/branded/VELO.svg

<svg width="24" height="24" viewBox="0 0 24 24" fill="none" xmlns="http://www.w3.org/2000/svg">
<path d="M12.7411 19.059C11.8216 19.0373 11.0116 18.7314 10.3539 18.0755C7.92275 15.6272 5.46919 13.2007 3.01622 10.7518C1.19856 8.9377 1.92091 5.87769 4.37389 5.11239C5.66625 4.71887 6.84921 5.00299 7.81333 5.96535C10.2445 8.36946 12.6322 10.7742 15.0416 13.1789C15.6987 13.8343 16.0711 14.6213 16.1146 15.5613C16.1804 17.1136 15.0635 18.5779 13.5299 18.9279C13.2887 18.9931 13.0039 19.0155 12.7411 19.059ZM18.7852 4.94122C19.2078 4.93959 19.6265 5.0216 20.0172 5.18255C20.4079 5.34348 20.763 5.58016 21.0618 5.87894C21.3606 6.17772 21.5974 6.5327 21.7584 6.9234C21.9194 7.3141 22.0015 7.7328 22 8.15534C22 9.95065 20.5805 11.3907 18.7852 11.4119C17.0111 11.4325 15.5499 9.95065 15.5293 8.17661C15.5499 6.38123 16.9905 4.94122 18.7852 4.94122Z" fill="#DB2264"/>
</svg>

<svg xmlns="http://www.w3.org/2000/svg" width="24" height="24" fill="none" viewBox="0 0 24 24">
    <path fill="#DB2264" d="M12.741 19.059c-.92-.022-1.73-.328-2.387-.983-2.431-2.449-4.885-4.875-7.338-7.324C1.2 8.938 1.921 5.878 4.374 5.112c1.292-.393 2.475-.109 3.44.853 2.43 2.404 4.818 4.81 7.228 7.214.657.655 1.03 1.442 1.073 2.382.065 1.553-1.051 3.017-2.585 3.367-.241.065-.526.087-.789.131m6.044-14.118A3.2 3.2 0 0 1 22 8.155a3.24 3.24 0 0 1-3.215 3.257c-1.774.02-3.235-1.461-3.256-3.235a3.256 3.256 0 0 1 3.256-3.236"/>
</svg>
